client/public/assets/icons/utility/undeprecate.svg

<?xml version="1.0"?><svg xmlns="http://www.w3.org/2000/svg" width="52" height="52" viewBox="0 0 52 52"><path fill="#fff" d="m48 7h-44c-1.1 0-2 0.9-2 2v26c0 1.1 0.9 2 2 2h16.2c1 5.7 5.9 10 11.8 10s10.9-4.3 11.8-10h4.2c1.1 0 2-0.9 2-2v-26c0-1.1-0.9-2-2-2z m-17.5 34.3l-5.9-5.9 2.8-2.8 3.1 3.1 7.1-7.1 2.8 2.8-9.9 9.9z m15.5-8.3h-2.2c-1-5.7-5.9-10-11.8-10s-10.9 4.3-11.8 10h-14.2v-22h40v22z"></path></svg>

<?xml version="1.0" encoding="utf-8"?>
<!-- Generator: Adobe Illustrator 18.1.1, SVG Export Plug-In . SVG Version: 6.00 Build 0)  -->
<svg version="1.1" id="Layer_1" xmlns="http://www.w3.org/2000/svg" xmlns:xlink="http://www.w3.org/1999/xlink" x="0px" y="0px"
	 width="52px" height="52px" viewBox="0 0 52 52" enable-background="new 0 0 52 52" xml:space="preserve">
<path fill="#FFFFFF" d="M48,7H4C2.9,7,2,7.9,2,9v26c0,1.1,0.9,2,2,2h16.2c1,5.7,5.9,10,11.8,10s10.9-4.3,11.8-10H48c1.1,0,2-0.9,2-2
	V9C50,7.9,49.1,7,48,7z M30.5,41.3l-5.9-5.9l2.8-2.8l3.1,3.1l7.1-7.1l2.8,2.8L30.5,41.3z M46,33h-2.2c-1-5.7-5.9-10-11.8-10
	s-10.9,4.3-11.8,10H6V11h40V33z"/>
</svg>
